svg/fluentui-system-icons/ic_fluent_pulse_square_20_regular.svg

<svg width="20" height="20" viewBox="0 0 20 20" fill="none" xmlns="http://www.w3.org/2000/svg">
<path d="M8.97087 6.33183C8.90029 6.13419 8.71379 6.00167 8.50394 6.00002C8.29408 5.99836 8.10552 6.12794 8.03184 6.32444L6.6535 10H5.5C5.22386 10 5 10.2239 5 10.5C5 10.7761 5.22386 11 5.5 11H7C7.20842 11 7.39498 10.8707 7.46816 10.6756L8.48855 7.95454L10.5291 13.6682C10.5965 13.8568 10.7699 13.987 10.9699 13.9991C11.1698 14.0112 11.3576 13.9028 11.4472 13.7236L12.809 11H14.5C14.7761 11 15 10.7761 15 10.5C15 10.2239 14.7761 10 14.5 10H12.5C12.3106 10 12.1375 10.107 12.0528 10.2764L11.0768 12.2284L8.97087 6.33183ZM5 3C3.89543 3 3 3.89543 3 5V15C3 16.1046 3.89543 17 5 17H15C16.1046 17 17 16.1046 17 15V5C17 3.89543 16.1046 3 15 3H5ZM4 5C4 4.44772 4.44772 4 5 4H15C15.5523 4 16 4.44772 16 5V15C16 15.5523 15.5523 16 15 16H5C4.44772 16 4 15.5523 4 15V5Z" fill="#212121"/>
</svg>

<svg xmlns="http://www.w3.org/2000/svg" width="20" height="20"><path d="M8.97 6.332a.5.5 0 0 0-.938-.008L6.654 10H5.5a.5.5 0 0 0 0 1H7a.5.5 0 0 0 .468-.324l1.02-2.721 2.041 5.713a.5.5 0 0 0 .918.056L12.81 11h1.69a.5.5 0 0 0 0-1h-2a.5.5 0 0 0-.447.276l-.976 1.952L8.97 6.332ZM5 3a2 2 0 0 0-2 2v10a2 2 0 0 0 2 2h10a2 2 0 0 0 2-2V5a2 2 0 0 0-2-2H5ZM4 5a1 1 0 0 1 1-1h10a1 1 0 0 1 1 1v10a1 1 0 0 1-1 1H5a1 1 0 0 1-1-1V5Z"/></svg>
